resources/svg/user-shared-fill.svg

<svg fill="currentColor" viewBox="0 0 24 24" xmlns="http://www.w3.org/2000/svg"><path d="M14 14.252V22H4C4 17.5817 7.58172 14 12 14C12.6906 14 13.3608 14.0875 14 14.252ZM12 13C8.685 13 6 10.315 6 7C6 3.685 8.685 1 12 1C15.315 1 18 3.685 18 7C18 10.315 15.315 13 12 13ZM18.5858 17L16.7574 15.1716L18.1716 13.7574L22.4142 18L18.1716 22.2426L16.7574 20.8284L18.5858 19H15V17H18.5858Z"/></svg>

<svg xmlns="http://www.w3.org/2000/svg" viewBox="0 0 24 24" fill="currentColor">
    <g>
        <path fill="none" d="M0 0h24v24H0z"/>
        <path d="M14 14.252V22H4a8 8 0 0 1 10-7.748zM12 13c-3.315 0-6-2.685-6-6s2.685-6 6-6 6 2.685 6 6-2.685 6-6 6zm6.586 4l-1.829-1.828 1.415-1.415L22.414 18l-4.242 4.243-1.415-1.415L18.586 19H15v-2h3.586z"/>
    </g>
</svg>
